svg/24/globe--filled.svg

<svg width="24" height="24" viewBox="0 0 24 24" fill="currentColor" xmlns="http://www.w3.org/2000/svg"><path d="M14.492 12.75H9.50795C9.56354 15.3624 9.90691 17.6878 10.4198 19.3844C10.702 20.3177 11.023 21.0184 11.3451 21.4691C11.6778 21.9345 11.9085 21.999 11.9979 22L11.9999 22C12.0877 22 12.3195 21.9383 12.6549 21.4691C12.977 21.0184 13.298 20.3177 13.5802 19.3844C14.0931 17.6878 14.4365 15.3624 14.492 12.75Z"/><path d="M9.50795 11.25H14.492C14.4365 8.63757 14.0931 6.31217 13.5802 4.61564C13.298 3.68229 12.977 2.98161 12.6549 2.53092C12.3195 2.06171 12.0878 2 12 2C11.9122 2 11.6805 2.06172 11.3451 2.53092C11.023 2.98161 10.702 3.6823 10.4198 4.61565C9.90691 6.31218 9.56354 8.63757 9.50795 11.25Z"/><path d="M15.9924 12.75C15.9367 15.4768 15.5795 17.9545 15.016 19.8184C14.7964 20.5448 14.539 21.1999 14.2427 21.7475C18.4498 20.7834 21.6448 17.1658 21.9722 12.75L15.9924 12.75Z"/><path d="M21.9722 11.25L15.9924 11.25C15.9367 8.52324 15.5795 6.04548 15.016 4.18156C14.7964 3.45516 14.539 2.80007 14.2427 2.2525C18.4498 3.21655 21.6448 6.83423 21.9722 11.25Z"/><path d="M8.00763 11.25L2.02759 11.25C2.35501 6.83413 5.55012 3.2164 9.7573 2.25244C9.46104 2.80002 9.20361 3.45514 8.98399 4.18157C8.42048 6.04549 8.06328 8.52324 8.00763 11.25Z"/><path d="M8.00763 12.75L2.02759 12.75C2.35501 17.1659 5.55012 20.7836 9.75729 21.7476C9.46103 21.2 9.20361 20.5449 8.98399 19.8184C8.42048 17.9545 8.06328 15.4768 8.00763 12.75Z"/></svg>

<svg xmlns="http://www.w3.org/2000/svg" width="24" height="24" fill="currentColor" viewBox="0 0 24 24">
  <path d="M14.492 12.75H9.508c.056 2.612.399 4.938.912 6.634.282.934.603 1.634.925 2.085.333.465.563.53.653.531H12c.088 0 .32-.062.655-.53.322-.452.643-1.152.925-2.086.513-1.696.857-4.022.912-6.634Zm-4.984-1.5h4.984c-.056-2.612-.399-4.938-.912-6.634-.282-.934-.603-1.634-.925-2.085C12.32 2.06 12.088 2 12 2c-.088 0-.32.062-.655.53-.322.452-.643 1.152-.925 2.086-.513 1.696-.856 4.022-.912 6.634Zm6.484 1.5c-.055 2.727-.413 5.204-.976 7.068-.22.727-.477 1.382-.773 1.93 4.207-.965 7.402-4.582 7.73-8.998h-5.98Zm5.98-1.5h-5.98c-.055-2.727-.413-5.205-.976-7.068-.22-.727-.477-1.382-.773-1.93 4.207.965 7.402 4.582 7.73 8.998Zm-13.964 0h-5.98c.327-4.416 3.522-8.034 7.73-8.998-.297.548-.554 1.203-.774 1.93-.564 1.863-.92 4.341-.976 7.068Zm0 1.5h-5.98c.327 4.416 3.522 8.034 7.73 8.998-.297-.548-.554-1.203-.774-1.93-.564-1.864-.92-4.341-.976-7.068Z"/>
</svg>
